static/Home.svg

<svg width="18" height="18" viewBox="0 0 18 18" fill="none" xmlns="http://www.w3.org/2000/svg">
<path d="M17.2274 5.75076L10.1296 0.38078C9.45849 -0.126927 8.54231 -0.126927 7.87123 0.38078L0.7734 5.75076C0.28715 6.11852 0 6.70108 0 7.32107V16.0489C0 17.1262 0.851931 18 1.90217 18H16.0978C17.1481 18 18 17.1262 18 16.0489V7.32107C18 6.70108 17.7136 6.11852 17.2274 5.75076ZM12.0452 14.8927C12.0452 15.2312 11.7779 15.5062 11.4471 15.5062H6.55368C6.22369 15.5062 5.95558 15.232 5.95558 14.8927C5.95558 14.5543 6.2229 14.2793 6.55368 14.2793H11.4471C11.7771 14.2793 12.0452 14.5535 12.0452 14.8927Z" fill="#BBC7D3"/>

</svg>

<svg xmlns="http://www.w3.org/2000/svg" width="18" height="18" fill="none"><path fill="#BBC7D3" d="M17.227 5.75 10.13.38a1.865 1.865 0 0 0-2.259 0L.773 5.75C.287 6.12 0 6.702 0 7.322v8.728C0 17.126.852 18 1.902 18h14.196c1.05 0 1.902-.874 1.902-1.951V7.32c0-.62-.286-1.202-.773-1.57Zm-5.182 9.143a.606.606 0 0 1-.598.613H6.554a.606.606 0 0 1-.598-.613c0-.339.267-.614.598-.614h4.893c.33 0 .598.274.598.614Z"/></svg>
